src/lib/icons/thumb-down-filled.svg

<!--{
  "category": "Action"
}-->
<svg xmlns="http://www.w3.org/2000/svg" width="15" height="16" viewBox="0 0 15 16" fill="none">
  <path d="M0.138187 6.7352L1.82545 1.82983C2.2051 0.719035 3.30949 -0.00170047 4.46777 2.89394e-06L8.31982 3.2307e-06C9.01052 0.00204988 9.61468 0.293022 10.2114 0.580395C10.3979 0.67025 10.9023 0.891274 11.0058 0.939321C10.9968 3.87572 11.0057 6.81222 11.0026 9.74863C10.9085 9.77722 10.7896 9.80836 10.698 9.83893C10.2964 9.97308 9.36358 10.1069 9.29494 10.2558L7.84789 13.1791C7.61913 13.6425 7.55409 14.1621 7.49008 14.6735C7.47495 14.7944 7.45987 14.9148 7.44271 15.0339C7.39799 15.3297 7.1905 15.6011 6.95056 15.7681C6.68932 15.95 6.39606 16 6.08537 16C4.60728 15.8137 4.54526 13.1851 4.88741 12.2082C5.15046 11.7611 5.54581 11.172 5.32558 10.4541L5.32634 10.4227C5.26832 10.4213 5.20967 10.4201 5.15046 10.419C5.06389 10.4174 4.97613 10.416 4.88741 10.4147C4.70386 10.4119 4.32908 10.4199 4.13938 10.4147C2.74776 10.3761 1.24528 10.209 0.436012 8.99559C-0.00706415 8.33127 -0.118711 7.4839 0.138187 6.7352Z" fill="#7A859E"/>
  <path d="M12.0078 11.0117L12.125 11.0121L14 11.0121C14.5523 11.0121 15 10.5639 15 10.011L15 1.0011C15 0.448208 14.5523 1.86821e-06 14 1.81993e-06L12.0036 1.64539e-06L12.0078 11.0117Z" fill="#7A859E"/>
</svg>

<!--{
  "category": "Action"
}-->
<svg xmlns="http://www.w3.org/2000/svg" width="15" height="16" fill="none"><path fill="#7A859E" d="M.138 6.735 1.825 1.83C2.205.719 3.31-.002 4.468 0H8.32c.69.002 1.295.293 1.891.58.187.09.691.311.795.36-.01 2.936 0 5.872-.003 8.809-.095.028-.213.06-.305.09-.402.134-1.334.268-1.403.417l-1.447 2.923c-.229.463-.294.983-.358 1.495a19.6 19.6 0 0 1-.047.36c-.045.296-.252.567-.492.734-.262.182-.555.232-.866.232-1.478-.186-1.54-2.815-1.198-3.792.263-.447.659-1.036.439-1.754v-.031a31.744 31.744 0 0 0-.439-.008c-.183-.003-.558.005-.748 0-1.391-.039-2.894-.206-3.703-1.42a2.59 2.59 0 0 1-.298-2.26ZM12.008 11.012H14a1 1 0 0 0 1-1.001v-9.01A1 1 0 0 0 14 0h-1.996l.004 11.012Z"/></svg>
